X:1
T:The Vacant Chair
T:The Vacant Chair
T:Voice and Piano
T:Geo. F. Root (1820-1895)
T:H.S. Washburn
T:by Mutopia-2014/09/07-426 - public domain
T:by Mutopia-2014/09/07-426 - public domain
C:Geo. F. Root (1820-1895)
Z:by Mutopia-2014/09/07-426 - public domain
%%score 1 2 { ( 3 5 ) | 4 }
L:1/8
Q:1/4=60
M:3/4
K:A
V:1 treble nm="Voce"
V:2 bass nm="Uomini" snm="U."
V:3 treble nm="Piano"
V:5 treble 
V:4 bass 
V:1
"^With feeling"!p! E3/2 E/ | E3 E F E | E A3 E3/2 E/ |!<(! E3 E F E!<)! | B4"^cresc." E3/2 E/ | %5
w: We shall|meet, but we shall|miss him, There will|be one va\- cant|chair; We shall|
w: At our|fire\- side, sad and|lone\- ly, Oft\- en|will the bo\- som|swell At re\-|
w: True, they|tell us wreaths of|glo\- ry, Ev\- er|more will deck his|brow, But this|
!f! c3 B A G | G F3 c3/2 B/ |"^dim." A3 G F G | A4 A3/2 A/ |!mf! B3 B A F | G B3 G3/2 e/ | %11
w: lin\- ger to ca\-|ress him, While we|breathe our eve\- ning|pray'r. When a|year a\- go we|gath\- ered, Joy was|
w: mem\- brance of the|sto\- ry How our|no\- ble Wil\- lie|fell, How he|strove to bear our|ban\- ner Thro' the|
w: soothes the an\- guish|on\- ly, Sweep\- ing|o'er our heart\- strings|now. Sleep to\-|day, oh, ear\- ly|fal\- len, In thy|
 ^d3"^dim." c B A | G4 B3/2 B/ | B3 B A F |!<(! G!<)! B3 e3/2 e/ |!>(! ^d3 c A F!>)! | E4 E3/2 E/ | %17
w: in his mild blue|eyes, But a|gold\- en chord is|sev\- ered, And our|hopes in ru\- in|lie. * *|
w: thick\- est of the|fight, And up\-|hold our coun\- try's|hon\- or In the|strength of man\- hood's|might. We shall|
w: green and nar\- row|bed, Dir\- ges|from the pine and|cy\- pryess, Min\- gle|with the tears we|shed. * *|
!p! E3 E F E | E A3 E3/2 E/ |!<(! E3 E F E!<)! | B4 E3/2 E/ |!f! c3 B A G | G F3"^dim." c3/2 B/ | %23
w: |||chair; We shall|lin\- ger to ca\-|ress him, While we|
w: meet, but we shall|miss him, There will|be one va\- cant||||
w: ||||||
 A3 G F G | A4 z2 :| %25
w: breathe our eve\- ning|pray'r.|
w: ||
w: ||
V:2
 z2 | z6 | z6 | z6 | z6 | z6 | z6 | z6 | z6 | z6 | z6 | z6 | z6 | z6 | z6 | z6 | z4 E,3/2 E,/ | %17
w: |||||||||||||||||
!p! E,3 E, F, E, | E, A,3 E,3/2 E,/ |!<(! E,3 E, F, E,!<)! | B,4 E,3/2 E,/ |!f! C3 B, A, G, | %22
w: |||chair; We shall|lin ger to ca|
 G, F,3"^dim." C3/2 B,/ | A,3 G, F, G, | A,4 z2 :| %25
w: ress him, While we|breathe our eve ning|pray'r.|
V:3
!p! E>E | [CE]3 ([CE][DF][CE]) | ([CE] [CEA]3) [CE]>E |!<(! [DE]3 ([DE][DF][DE])!<)! | %4
 [DEB]4"^cresc." [DE]>E |!f! [EAc]3 ([EB][EA][EG]) | ([DG] [DF]3) ([DFc]>B) | %7
"^dim." [CEA]3 ([DG][DF][DG]) | [CA]4 A>A |!mf! [EGB]3 [EGB][^DA][DF] | [EG] [GB]3 ([EG]>e) | %11
 [FA^d]3"^dim." ([Ac][GB][FA]) | [EG]4 [EB]>B | [^DB]3 ([DB][DA][DF]) | %14
!<(! [EG]!<)! [GB]3 [EGe]>e |!>(! [FA^d]3 (c[^DA][DF])!>)! | E4 E>E |!p! [CE]3 ([CE][DF][CE]) | %18
 ([CE] [CEA]3) [CE]>E |!<(! [DE]3 ([DE][DF][DE])!<)! | [DEB]4 [DE]>E |!f! [EAc]3 ([EB][EA][EG]) | %22
 [DG] [DF]3"^dim." [DFc]>B | [CEA]3 [B,DG][B,DF][B,DG] | [CEA]4 z2 :| %25
V:4
 z2 | [A,,E,]4 [A,,E,]2 | [A,,E,]4 [A,,A,]2 | [E,G,]4 [E,G,]2 | [E,G,]4 [E,G,]2 | %5
 [A,,A,]3 [C,A,][C,A,][C,A,] | [D,A,]4 D,2 | E,4 [E,,E,]2 | [A,,E,]4 z2 | E,3 E, [B,,F,][B,,F,] | %10
 [B,,E,]4 [B,,E,]2 | [B,,F,]4 [B,,F,]2 | E,4 G,2 | [B,,F,]3 [B,,F,][B,,F,][B,,F,] | %14
 [B,,E,]4 [B,,E,]2 | [B,,F,]4 ([B,,F,][B,,A,]) | [E,G,]4 z2 | [A,,E,]4 [A,,E,]2 | %18
 [A,,E,]4 [A,,A,]2 | [E,G,]4 [E,G,]2 | [E,G,]4 [E,G,]2 | [A,,A,]3 [C,A,][C,A,][C,A,] | %22
 [D,A,]4 [D,,D,]2 | [E,,E,]3 [E,,E,][E,,E,][E,,E,] | [A,,,A,,]4 z2 :| %25
V:5
 x2 | x6 | x6 | x6 | x6 | x6 | x6 | x6 | x6 | x6 | x6 | x3 ^D3 | x6 | x6 | x6 | x6 | x6 | x6 | x6 | %19
 x6 | x6 | x6 | x6 | x6 | x6 :| %25

